**kern	**silbe	**harmony	**phrase	**leadinstrument	**rhyme	**timestamp	**harte
*ICvox	*	*M4/4	*	*	*	*	*M4/4
*VRlead	*	*	*	*	*	*	*
*Hstimme	*	*	*	*	*	*	*
*e-:	*	*e-:	*	*	*	*	*e-:
*M4/4	*	*	*	*	*	*	*
*clefF4	*	*	*	*	*	*	*
r;	.	1r;	.	r	.	0	N.C.
=1	=1	=1	=1	=1	=1	=1	=1
*>Letter>A	*>Letter>A	*>Letter>A	*>Letter>A	*>Letter>A	*>Letter>A	*>Letter>A	*>Letter>A
*>Label>Intro	*>Label>Intro	*>Label>Intro	*>Label>Intro	*>Label>Intro	*>Label>Intro	*>Label>Intro	*>Label>Intro
1r	.	1E-mm	newline	synthesizer	.	0.464	E-:min7
=2	=2	=2	=2	=2	=2	=2	=2
1r	.	1E-mm	.	synthesizer	.	2.427	E-:min7
=3	=3	=3	=3	=3	=3	=3	=3
1r	.	1E-mm	.	synthesizer	.	4.39	E-:min7
=4	=4	=4	=4	=4	=4	=4	=4
1r	.	1E-mm	.	synthesizer	.	6.352	E-:min7
=5	=5	=5	=5	=5	=5	=5	=5
1r	.	1E-mm	newline	synthesizer	.	8.315	E-:min7
=6	=6	=6	=6	=6	=6	=6	=6
1r	.	1E-mm	.	synthesizer	.	10.297	E-:min7
=7	=7	=7	=7	=7	=7	=7	=7
1r	.	1E-mm	.	synthesizer	.	12.28	E-:min7
=8	=8	=8	=8	=8	=8	=8	=8
1r	.	1E-mm	.	synthesizer	.	14.262	E-:min7
=9	=9	=9	=9	=9	=9	=9	=9
*>Letter>B	*>Letter>B	*>Letter>B	*>Letter>B	*>Letter>B	*>Letter>B	*>Letter>B	*>Letter>B
*>Label>Verse	*>Label>Verse	*>Label>Verse	*>Label>Verse	*>Label>Verse	*>Label>Verse	*>Label>Verse	*>Label>Verse
2.r	.	1E-mm	newline	voice	.	16.244	E-:min7
8E-	Let	.	.	.	.	.	.
8E-	me	.	.	.	.	.	.
=10	=10	=10	=10	=10	=10	=10	=10
8G-	take	1E-mm	.	voice	.	18.2	E-:min7
8G-	you	.	.	.	.	.	.
8G-	on	.	.	.	.	.	.
8G-	a	.	.	.	.	.	.
4E-	trip`	.	.	.	.	.	.
4r	.	.	.	.	.	.	.
=11	=11	=11	=11	=11	=11	=11	=11
2r	.	1E-mm	.	voice	.	20.156	E-:min7
8r	.	.	.	.	.	.	.
8E-	a-	.	.	.	.	.	.
8E-	-round	.	.	.	.	.	.
8E-	the	.	.	.	.	.	.
=12	=12	=12	=12	=12	=12	=12	=12
4G-	world	1E-mm	.	voice	.	22.112	E-:min7
4G-	and	.	.	.	.	.	.
4E-	back;	.	.	.	.	.	.
4r	.	.	.	.	.	.	.
=13	=13	=13	=13	=13	=13	=13	=13
2r	.	1E-mm	newline	voice	.	24.068	E-:min7
8r	.	.	.	.	.	.	.
8E-	and	.	.	.	.	.	.
8E-	you	.	.	.	.	.	.
[8G-	won't	.	.	.	.	.	.
=14	=14	=14	=14	=14	=14	=14	=14
8G-]	_	1E-mm	.	voice	.	26.039	E-:min7
4G-	have	.	.	.	.	.	.
8G-	to	.	.	.	.	.	.
8E-	move.	.	.	.	.	.	.
8E-	you	.	.	.	.	.	.
8E-	just	.	.	.	.	.	.
[8G-	sit	.	.	.	.	.	.
=15	=15	=15	=15	=15	=15	=15	=15
8G-]	_	1E-mm	.	voice	.	28.011	E-:min7
4.E-	still.	.	.	.	.	.	.
2r	.	.	.	.	.	.	.
=16	=16	=16	=16	=16	=16	=16	=16
1r	.	1E-mm	.	voice	.	29.982	E-:min7
=17	=17	=17	=17	=17	=17	=17	=17
2r	.	1E-mm	newline	voice	.	31.954	E-:min7
8r	.	.	.	.	.	.	.
8E-	Now	.	.	.	.	.	.
8E-	let	.	.	.	.	.	.
8E-	your	.	.	.	.	.	.
=18	=18	=18	=18	=18	=18	=18	=18
4G-	mind	1E-mm	.	voice	.	33.917	E-:min7
8G-	do	.	.	.	.	.	.
8G-	the	.	.	.	.	.	.
4E-	walk-	.	.	.	(A	.	.
4G-	-ing;	.	.	.	a)	.	.
=19	=19	=19	=19	=19	=19	=19	=19
2r	.	1A-mm	.	voice	.	35.88	A-:min7
8r	.	.	.	.	.	.	.
8E-	And	.	.	.	.	.	.
8E-	let	.	.	.	.	.	.
8E-	my	.	.	.	.	.	.
=20	=20	=20	=20	=20	=20	=20	=20
8G-	bo-	1A-mm	.	voice	.	37.844	A-:min7
8G-	-dy	.	.	.	.	.	.
8G-	do	.	.	.	.	.	.
8G-	the	.	.	.	.	.	.
4D-	talk-	.	.	.	(A	.	.
[4E-	-ing.	.	.	.	a)	.	.
=21	=21	=21	=21	=21	=21	=21	=21
4E-]	_	1E-mm	newline	voice	.	39.807	E-:min7
2r	.	.	.	.	.	.	.
8E-	Let	.	.	.	.	.	.
8E-	me	.	.	.	.	.	.
=22	=22	=22	=22	=22	=22	=22	=22
8G-	show	1E-mm	.	voice	.	41.759	E-:min7
8G-	you	.	.	.	.	.	.
8G-	the	.	.	.	.	.	.
4E-	world	.	.	.	.	.	.
8E-	in	.	.	.	.	.	.
8G-	my	.	.	.	.	.	.
[8E-	eyes.	.	.	.	.	.	.
=23	=23	=23	=23	=23	=23	=23	=23
2E-]	_	1E-mm	.	voice	.	43.712	E-:min7(b13)
2r	.	.	.	.	.	.	.
=24	=24	=24	=24	=24	=24	=24	=24
1r	.	1E-mm	.	voice	.	45.664	E-:min7(b13)
=25	=25	=25	=25	=25	=25	=25	=25
*>Letter>A	*>Letter>A	*>Letter>A	*>Letter>A	*>Letter>A	*>Letter>A	*>Letter>A	*>Letter>A
*>Label>Interlude	*>Label>Interlude	*>Label>Interlude	*>Label>Interlude	*>Label>Interlude	*>Label>Interlude	*>Label>Interlude	*>Label>Interlude
1r	.	1E-mm	newline	synthesizer	.	47.616	E-:min7
=26	=26	=26	=26	=26	=26	=26	=26
1r	.	1E-mm	.	synthesizer	.	49.601	E-:min7
=27	=27	=27	=27	=27	=27	=27	=27
1r	.	1E-mm	.	synthesizer	.	51.585	E-:min7
=28	=28	=28	=28	=28	=28	=28	=28
1r	.	1E-mm	.	synthesizer	.	53.57	E-:min7
=29	=29	=29	=29	=29	=29	=29	=29
1r	.	1E-mm	newline	synthesizer	.	55.555	E-:min7
=30	=30	=30	=30	=30	=30	=30	=30
1r	.	1E-mm	.	synthesizer	.	57.51	E-:min7
=31	=31	=31	=31	=31	=31	=31	=31
1r	.	1E-mm	.	synthesizer	.	59.465	E-:min7
=32	=32	=32	=32	=32	=32	=32	=32
1r	.	1E-mm	.	synthesizer	.	61.42	E-:min7
=33	=33	=33	=33	=33	=33	=33	=33
*>Letter>B	*>Letter>B	*>Letter>B	*>Letter>B	*>Letter>B	*>Letter>B	*>Letter>B	*>Letter>B
*>Label>Verse	*>Label>Verse	*>Label>Verse	*>Label>Verse	*>Label>Verse	*>Label>Verse	*>Label>Verse	*>Label>Verse
4.r	.	1E-mm	newline	voice	.	63.375	E-:min7
8E-	I'll	.	.	.	.	.	.
8E-	take	.	.	.	.	.	.
8E-	you	.	.	.	.	.	.
8E-	to	.	.	.	.	.	.
8E-	the	.	.	.	.	.	.
=34	=34	=34	=34	=34	=34	=34	=34
4G-	high-	1E-mm	.	voice	.	65.341	E-:min7
4G-	-est	.	.	.	.	.	.
4E-	moun-	.	.	.	.	.	.
4G-	-tain,	.	.	.	.	.	.
=35	=35	=35	=35	=35	=35	=35	=35
4r	.	1E-mm	.	voice	.	67.308	E-:min7
8G-	To	.	.	.	.	.	.
8E-	the	.	.	.	.	.	.
4G-	depths	.	.	.	.	.	.
8G-	of	.	.	.	.	.	.
8E-	the	.	.	.	.	.	.
=36	=36	=36	=36	=36	=36	=36	=36
4G-	dee-	1E-mm	.	voice	.	69.274	E-:min7
4G-	-pest	.	.	.	.	.	.
4E-	sea;	.	.	.	B	.	.
4r	.	.	.	.	.	.	.
=37	=37	=37	=37	=37	=37	=37	=37
2r	.	1E-mm	newline	voice	.	71.241	E-:min7
8r	.	.	.	.	.	.	.
8E-	And	.	.	.	.	.	.
8E-	we	.	.	.	.	.	.
[8G-	won't	.	.	.	.	.	.
=38	=38	=38	=38	=38	=38	=38	=38
8G-]	_	1E-mm	.	voice	.	73.204	E-:min7
4G-	need	.	.	.	.	.	.
8G-	a	.	.	.	.	.	.
4E-	map.	.	.	.	.	.	.
8E-	be-	.	.	.	.	.	.
[8G-	-lieve	.	.	.	.	.	.
=39	=39	=39	=39	=39	=39	=39	=39
8G-]	_	1E-mm	.	voice	.	75.166	E-:min7
4.E-	me.	.	.	.	B	.	.
2r	.	.	.	.	.	.	.
=40	=40	=40	=40	=40	=40	=40	=40
1r	.	1E-mm	.	voice	.	77.129	E-:min7
=41	=41	=41	=41	=41	=41	=41	=41
2r	.	1E-mm	newline	voice	.	79.092	E-:min7
8r	.	.	.	.	.	.	.
8E-	Now	.	.	.	.	.	.
8E-	let	.	.	.	.	.	.
8E-	my	.	.	.	.	.	.
=42	=42	=42	=42	=42	=42	=42	=42
8G-	bo-	1E-mm	.	voice	.	81.046	E-:min7
8G-	-dy	.	.	.	.	.	.
8G-	do	.	.	.	.	.	.
8G-	the	.	.	.	.	.	.
4E-	mov-	.	.	.	(C	.	.
4G-	-ing;	.	.	.	c)	.	.
=43	=43	=43	=43	=43	=43	=43	=43
2r	.	1A-mm	.	voice	.	83.001	A-:min7
8r	.	.	.	.	.	.	.
8E-	And	.	.	.	.	.	.
8E-	let	.	.	.	.	.	.
8E-	my	.	.	.	.	.	.
=44	=44	=44	=44	=44	=44	=44	=44
4G-	hands	1A-mm	.	voice	.	84.956	A-:min7
8G-	do	.	.	.	.	.	.
8G-	the	.	.	.	.	.	.
4D-	sooth-	.	.	.	(C	.	.
[4E-	-ing.	.	.	.	c)	.	.
=45	=45	=45	=45	=45	=45	=45	=45
16E-]	_	1E-mm	newline	voice	.	86.911	E-:min7
16G-	_	.	.	.	.	.	.
8E-	_	.	.	.	.	.	.
2r	.	.	.	.	.	.	.
8E-	Let	.	.	.	.	.	.
8E-	me	.	.	.	.	.	.
=46	=46	=46	=46	=46	=46	=46	=46
8G-	show	1E-mm	.	voice	.	88.895	E-:min7
8G-	you	.	.	.	.	.	.
8G-	the	.	.	.	.	.	.
4E-	world	.	.	.	.	.	.
8E-	in	.	.	.	.	.	.
8G-	my	.	.	.	.	.	.
[8E-	eyes.	.	.	.	.	.	.
=47	=47	=47	=47	=47	=47	=47	=47
2E-]	_	1E-mm	.	voice	.	90.879	E-:min7(b13)
2r	.	.	.	.	.	.	.
=48	=48	=48	=48	=48	=48	=48	=48
1r	.	1E-mm	.	voice	.	92.863	E-:min7(b13)
=49	=49	=49	=49	=49	=49	=49	=49
*>Letter>C	*>Letter>C	*>Letter>C	*>Letter>C	*>Letter>C	*>Letter>C	*>Letter>C	*>Letter>C
*>Label>Chorus	*>Label>Chorus	*>Label>Chorus	*>Label>Chorus	*>Label>Chorus	*>Label>Chorus	*>Label>Chorus	*>Label>Chorus
1r	.	1Cm	newline	voice	.	94.847	C:min
=50	=50	=50	=50	=50	=50	=50	=50
1r	.	1C-M	.	voice	.	96.807	C-:maj
=51	=51	=51	=51	=51	=51	=51	=51
4r	.	1A-m	.	voice	.	98.768	A-:min
4G-	That's	.	.	.	.	.	.
4.C-	all	.	.	.	.	.	.
[8G-	there	.	.	.	.	.	.
=52	=52	=52	=52	=52	=52	=52	=52
8G-]	_	1B-M	.	voice	.	100.728	B-:maj
4.BB-	is.	.	.	.	.	.	.
2r	.	.	.	.	.	.	.
=53	=53	=53	=53	=53	=53	=53	=53
8G-	No-	1E-m	newline	voice	.	102.688	E-:min
4F	-thing	.	.	.	.	.	.
4BB-	more	.	.	.	.	.	.
4G-	than	.	.	.	.	.	.
[8F	you	.	.	.	.	.	.
=54	=54	=54	=54	=54	=54	=54	=54
8F]	_	1A-m	.	voice	.	104.66	A-:min
4BB-	can	.	.	.	.	.	.
4G-	feel	.	.	.	.	.	.
4E-	now.	.	.	.	.	.	.
[8G-	That's	.	.	.	.	.	.
=55	=55	=55	=55	=55	=55	=55	=55
8G-]	_	1B-M	.	voice	.	106.631	B-:maj
4E-	all	.	.	.	.	.	.
4A-	there	.	.	.	.	.	.
4.E-	is.	.	.	.	.	.	.
=56	=56	=56	=56	=56	=56	=56	=56
*>Letter>A	*>Letter>A	*>Letter>A	*>Letter>A	*>Letter>A	*>Letter>A	*>Letter>A	*>Letter>A
*>Label>Interlude	*>Label>Interlude	*>Label>Interlude	*>Label>Interlude	*>Label>Interlude	*>Label>Interlude	*>Label>Interlude	*>Label>Interlude
1r	.	1E-mm	->newline	synthesizer	.	108.603	E-:min7
=57	=57	=57	=57	=57	=57	=57	=57
1r	.	1E-mm	.	synthesizer	.	110.562	E-:min7
=58	=58	=58	=58	=58	=58	=58	=58
1r	.	1E-mm	.	synthesizer	.	112.52	E-:min7
=59	=59	=59	=59	=59	=59	=59	=59
1r	.	1E-mm	.	synthesizer	.	114.479	E-:min7
=60	=60	=60	=60	=60	=60	=60	=60
1r	.	1E-mm	newline	synthesizer	.	116.438	E-:min7
=61	=61	=61	=61	=61	=61	=61	=61
1r	.	1E-mm	.	synthesizer	.	118.414	E-:min7
=62	=62	=62	=62	=62	=62	=62	=62
1r	.	1E-mm	.	synthesizer	.	120.389	E-:min7
=63	=63	=63	=63	=63	=63	=63	=63
1r	.	1E-mm	.	synthesizer	.	122.365	E-:min7
=64	=64	=64	=64	=64	=64	=64	=64
*>Letter>B	*>Letter>B	*>Letter>B	*>Letter>B	*>Letter>B	*>Letter>B	*>Letter>B	*>Letter>B
*>Label>Verse	*>Label>Verse	*>Label>Verse	*>Label>Verse	*>Label>Verse	*>Label>Verse	*>Label>Verse	*>Label>Verse
2.r	.	1E-mm	newline	voice	.	124.34	E-:min7
8E-	Let	.	.	.	.	.	.
8E-	me	.	.	.	.	.	.
=65	=65	=65	=65	=65	=65	=65	=65
8G-	put	1E-mm	.	voice	.	126.291	E-:min7
8G-	you	.	.	.	.	.	.
8G-	on	.	.	.	.	.	.
8G-	a	.	.	.	.	.	.
4E-	ship,	.	.	.	D	.	.
4r	.	.	.	.	.	.	.
=66	=66	=66	=66	=66	=66	=66	=66
2.r	.	1E-mm	.	voice	.	128.241	E-:min7
8E-	On	.	.	.	.	.	.
8E-	a	.	.	.	.	.	.
=67	=67	=67	=67	=67	=67	=67	=67
4G-	long	1E-mm	.	voice	.	130.192	E-:min7
4G-	long	.	.	.	.	.	.
4E-	trip|	.	.	.	D	.	.
4r	.	.	.	.	.	.	.
=68	=68	=68	=68	=68	=68	=68	=68
2..r	.	1E-mm	newline	voice	.	132.143	E-:min7
[8G-	your	.	.	.	.	.	.
=69	=69	=69	=69	=69	=69	=69	=69
8G-]	_	1E-mm	.	voice	.	134.116	E-:min7
4G-	lips	.	.	.	D	.	.
4E-	close	.	.	.	.	.	.
4E-	to	.	.	.	.	.	.
[8G-	my	.	.	.	.	.	.
=70	=70	=70	=70	=70	=70	=70	=70
8G-]	_	1E-mm	.	voice	.	136.09	E-:min7
4.E-	lips.	.	.	.	D	.	.
2r	.	.	.	.	.	.	.
=71	=71	=71	=71	=71	=71	=71	=71
1r	.	1E-mm	.	voice	.	138.063	E-:min7
=72	=72	=72	=72	=72	=72	=72	=72
2.r	.	1E-mm	newline	voice	.	140.036	E-:min7
8E-	All	.	.	.	.	.	.
8E-	the	.	.	.	.	.	.
=73	=73	=73	=73	=73	=73	=73	=73
8G-	is-	1E-mm	.	voice	.	141.997	E-:min7
8G-	-lands	.	.	.	.	.	.
8G-	in	.	.	.	.	.	.
8G-	the	.	.	.	.	.	.
4E-	o-	.	.	.	(E	.	.
[4G-	-cean.	.	.	.	e)	.	.
=74	=74	=74	=74	=74	=74	=74	=74
4G-]	_	1A-Mm	.	voice	.	143.958	A-:7
2r	.	.	.	.	.	.	.
8E-	All	.	.	.	.	.	.
8E-	the	.	.	.	.	.	.
=75	=75	=75	=75	=75	=75	=75	=75
8G-	heav-	1A-Mm	.	voice	.	145.919	A-:7
8G-	-ens	.	.	.	.	.	.
4G-	in	.	.	.	.	.	.
4D-	mo-	.	.	.	(E	.	.
[4E-	-tion.	.	.	.	e)	.	.
=76	=76	=76	=76	=76	=76	=76	=76
4E-]	_	1E-mm	newline	voice	.	147.88	E-:min7
2r	.	.	.	.	.	.	.
8E-	Let	.	.	.	.	.	.
8E-	me	.	.	.	.	.	.
=77	=77	=77	=77	=77	=77	=77	=77
8G-	show	1E-mm	.	voice	.	149.851	E-:min7
8G-	you	.	.	.	.	.	.
8G-	the	.	.	.	.	.	.
4E-	world	.	.	.	.	.	.
8E-	in	.	.	.	.	.	.
8G-	my	.	.	.	.	.	.
[8E-	eyes.	.	.	.	.	.	.
=78	=78	=78	=78	=78	=78	=78	=78
2E-]	_	1E-mm	.	voice	.	151.822	E-:min7(b13)
2r	.	.	.	.	.	.	.
=79	=79	=79	=79	=79	=79	=79	=79
1r	.	1E-mm	.	voice	.	153.793	E-:min7(b13)
=80	=80	=80	=80	=80	=80	=80	=80
*>Letter>C	*>Letter>C	*>Letter>C	*>Letter>C	*>Letter>C	*>Letter>C	*>Letter>C	*>Letter>C
*>Label>Chorus	*>Label>Chorus	*>Label>Chorus	*>Label>Chorus	*>Label>Chorus	*>Label>Chorus	*>Label>Chorus	*>Label>Chorus
1r	.	1Cm	newline	voice	.	155.764	C:min
=81	=81	=81	=81	=81	=81	=81	=81
1r	.	1C-M	.	voice	.	157.719	C-:maj
=82	=82	=82	=82	=82	=82	=82	=82
4r	.	1A-m	.	voice	.	159.674	A-:min
4G-	That's	.	.	.	.	.	.
4.C-	all	.	.	.	.	.	.
[8G-	there	.	.	.	.	.	.
=83	=83	=83	=83	=83	=83	=83	=83
8G-]	_	1B-M	.	voice	.	161.628	B-:maj
4.BB-	is.	.	.	.	.	.	.
2r	.	.	.	.	.	.	.
=84	=84	=84	=84	=84	=84	=84	=84
8G-	No-	1E-m	newline	voice	.	163.583	E-:min
4F	-thing	.	.	.	.	.	.
4BB-	more	.	.	.	.	.	.
4G-	than	.	.	.	.	.	.
[8F	you	.	.	.	.	.	.
=85	=85	=85	=85	=85	=85	=85	=85
8F]	_	1A-m	.	voice	.	165.551	A-:min
4BB-	can	.	.	.	.	.	.
4G-	feel	.	.	.	.	.	.
4E-	now.	.	.	.	.	.	.
[8G-	That's	.	.	.	.	.	.
=86	=86	=86	=86	=86	=86	=86	=86
8G-]	_	1B-M	.	voice	.	167.518	B-:maj
4E-	all	.	.	.	.	.	.
4A-	there	.	.	.	.	.	.
4.E-	is.	.	.	.	.	.	.
=87	=87	=87	=87	=87	=87	=87	=87
*>Letter>A	*>Letter>A	*>Letter>A	*>Letter>A	*>Letter>A	*>Letter>A	*>Letter>A	*>Letter>A
*>Label>Interlude	*>Label>Interlude	*>Label>Interlude	*>Label>Interlude	*>Label>Interlude	*>Label>Interlude	*>Label>Interlude	*>Label>Interlude
1r	.	1E-mm	->newline	synthesizer	.	169.485	E-:min7
=88	=88	=88	=88	=88	=88	=88	=88
1r	.	1E-mm	.	synthesizer	.	171.463	E-:min7
=89	=89	=89	=89	=89	=89	=89	=89
1r	.	1A-M	.	synthesizer	.	173.441	A-:maj
=90	=90	=90	=90	=90	=90	=90	=90
1r	.	1A-m	.	synthesizer	.	175.419	A-:min
=91	=91	=91	=91	=91	=91	=91	=91
1r	.	1E-mm	newline	synthesizer	.	177.397	E-:min7
=92	=92	=92	=92	=92	=92	=92	=92
1r	.	1E-mm	.	synthesizer	.	179.361	E-:min7
=93	=93	=93	=93	=93	=93	=93	=93
1r	.	1A-M	.	synthesizer	.	181.325	A-:maj
=94	=94	=94	=94	=94	=94	=94	=94
1r	.	1A-m	.	synthesizer	.	183.289	A-:min
=95	=95	=95	=95	=95	=95	=95	=95
*>Letter>B2	*>Letter>B2	*>Letter>B2	*>Letter>B2	*>Letter>B2	*>Letter>B2	*>Letter>B2	*>Letter>B2
*>Label>Outro	*>Label>Outro	*>Label>Outro	*>Label>Outro	*>Label>Outro	*>Label>Outro	*>Label>Outro	*>Label>Outro
2.r	.	1E-mm	newline	voice	.	185.253	E-:min7
8E-	Let	.	.	.	.	.	.
8E-	me	.	.	.	.	.	.
=96	=96	=96	=96	=96	=96	=96	=96
8G-	show	1E-mm	.	voice	.	187.21	E-:min7
8G-	you	.	.	.	.	.	.
8G-	the	.	.	.	.	.	.
4E-	world	.	.	.	.	.	.
8E-	in	.	.	.	.	.	.
8G-	my	.	.	.	.	.	.
[8E-	eyes.	.	.	.	.	.	.
=97	=97	=97	=97	=97	=97	=97	=97
2E-]	_	1A-M	.	voice	.	189.168	A-:maj
2r	.	.	.	.	.	.	.
=98	=98	=98	=98	=98	=98	=98	=98
1r	.	1A-m	.	voice	.	191.126	A-:min
=99	=99	=99	=99	=99	=99	=99	=99
2.r	.	1E-mm	newline	voice	.	193.083	E-:min7
8E-	Let	.	.	.	.	.	.
8E-	me	.	.	.	.	.	.
=100	=100	=100	=100	=100	=100	=100	=100
8G-	show	1E-mm	.	voice	.	195.057	E-:min7
8G-	you	.	.	.	.	.	.
8G-	the	.	.	.	.	.	.
4E-	world	.	.	.	.	.	.
8E-	in	.	.	.	.	.	.
8G-	my	.	.	.	.	.	.
[8E-	eyes.	.	.	.	.	.	.
=101	=101	=101	=101	=101	=101	=101	=101
2E-]	_	1A-M	.	voice	.	197.031	A-:maj
2r	.	.	.	.	.	.	.
=102	=102	=102	=102	=102	=102	=102	=102
1r	.	1A-m	.	voice	.	199.005	A-:min
=103	=103	=103	=103	=103	=103	=103	=103
2.r	.	1E-mm	newline	voice	.	200.98	E-:min7
8E-	Let	.	.	.	.	.	.
8E-	me	.	.	.	.	.	.
=104	=104	=104	=104	=104	=104	=104	=104
8G-	show	1E-mm	.	voice	.	202.939	E-:min7
8G-	you	.	.	.	.	.	.
8G-	the	.	.	.	.	.	.
4E-	world	.	.	.	.	.	.
8E-	in	.	.	.	.	.	.
4G-	my	.	.	.	.	.	.
=105	=105	=105	=105	=105	=105	=105	=105
2E-	eyes.	1A-M	.	voice	.	204.899	A-:maj
2r	.	.	.	.	.	.	.
=106	=106	=106	=106	=106	=106	=106	=106
1r	.	1A-m	.	voice	.	206.859	A-:min
=107	=107	=107	=107	=107	=107	=107	=107
2.r	.	1E-mm	newline	voice	.	208.818	E-:min7
8E-	Let	.	.	.	.	.	.
8E-	me	.	.	.	.	.	.
=108	=108	=108	=108	=108	=108	=108	=108
8G-	show	1E-mm	.	voice	.	210.788	E-:min7
8G-	you	.	.	.	.	.	.
8G-	the	.	.	.	.	.	.
4E-	world	.	.	.	.	.	.
8E-	in	.	.	.	.	.	.
4G-	my	.	.	.	.	.	.
=109	=109	=109	=109	=109	=109	=109	=109
2E-	eyes.	1A-M	.	voice	.	212.758	A-:maj
2r	.	.	.	.	.	.	.
=110	=110	=110	=110	=110	=110	=110	=110
1r	.	1A-m	.	voice	.	214.728	A-:min
=111	=111	=111	=111	=111	=111	=111	=111
*>Label>>Fadeout	*>Label>>Fadeout	*>Label>>Fadeout	*>Label>>Fadeout	*>Label>>Fadeout	*>Label>>Fadeout	*>Label>>Fadeout	*>Label>>Fadeout
2.r	.	1E-mm	newline	voice	.	216.698	E-:min7
8E-	Let	.	.	.	.	.	.
8E-	me	.	.	.	.	.	.
=112	=112	=112	=112	=112	=112	=112	=112
8G-	show	1E-mm	.	voice	.	218.659	E-:min7
8G-	you	.	.	.	.	.	.
8G-	the	.	.	.	.	.	.
4E-	world	.	.	.	.	.	.
8E-	in	.	.	.	.	.	.
8G-	my	.	.	.	.	.	.
[8E-	eyes.	.	.	.	.	.	.
=113	=113	=113	=113	=113	=113	=113	=113
2E-]	_	1A-M	.	voice	.	220.62	A-:maj
2r	.	.	.	.	.	.	.
=114	=114	=114	=114	=114	=114	=114	=114
1r	.	1A-m	.	voice	.	222.581	A-:min
=115	=115	=115	=115	=115	=115	=115	=115
2.r	.	1E-mm	newline	voice	.	224.543	E-:min7
8E-	Let	.	.	.	.	.	.
8E-	me	.	.	.	.	.	.
=116	=116	=116	=116	=116	=116	=116	=116
8G-	show	1E-mm	.	voice	.	226.502	E-:min7
8G-	you	.	.	.	.	.	.
8G-	the	.	.	.	.	.	.
4E-	world	.	.	.	.	.	.
8E-	in	.	.	.	.	.	.
[4G-	my	.	.	.	.	.	.
=117	=117	=117	=117	=117	=117	=117	=117
8G-]	_	1A-M	.	voice	.	228.462	A-:maj
[4.E-	eyes.	.	.	.	.	.	.
4E-]	_	.	.	.	.	.	.
4r	.	.	.	.	.	.	.
=118	=118	=118	=118	=118	=118	=118	=118
1r	.	1A-m	.	voice	.	230.421	A-:min
=119	=119	=119	=119	=119	=119	=119	=119
2.r	.	1E-mm	newline	voice	.	232.381	E-:min7
8E-	Let	.	.	.	.	.	.
8E-	me	.	.	.	.	.	.
=120	=120	=120	=120	=120	=120	=120	=120
8G-	show	1E-mm	.	voice	.	233.258	E-:min7
8G-	you	.	.	.	.	.	.
8G-	the	.	.	.	.	.	.
4E-	world	.	.	.	.	.	.
8E-	in	.	.	.	.	.	.
[4G-	my	.	.	.	.	.	.
=121	=121	=121	=121	=121	=121	=121	=121
8G-]	_	1A-M	.	voice	.	234.136	A-:maj
[4.E-	eyes.	.	.	.	.	.	.
4E-]	_	.	.	.	.	.	.
4r	.	.	.	.	.	.	.
=122	=122	=122	=122	=122	=122	=122	=122
1r	.	1A-m	.	voice	.	235.014	A-:min
r;	.	1r;	.	r	.	235.892	N.C.
r;	.	1r;	.	r	.	239.856	N.C.
*-	*-	*-	*-	*-	*-	*-	*-
!!!BillboardChartDate: 1990/12/22, 1990/11/24
!!!BillboardPeak: 52, 52
!!!BillboardWeeksOnChart: 10, 10
!!!COC: Depeche Mode
!!!ENC: Nathaniel Condit-Schultz
!!!EST: Awating manual error checking and editing.
!!!OTL: World In My Eyes
!!!RDF**chordsym: original McGill chord annotation + (implied pitch class set, with bass pitch in first position)
!!!RDF**harmony: **recip + pitch class of root + harmonic quality
!!!RDF**leadinstrument: original McGill primary instrumentation annotation
!!!RDF**phrase: newline = linebreak in original McGill transcription
!!!RDF**timestamp: McGill audio timestamp in seconds
!!!RDT: 2017/01/12/
!!!SampleActualRank: 52, 71
!!!SampleID#: 442, 757
!!!SampleTargetRank: 54, 70
